svgs/regular/person-dress-burst.svg

<svg xmlns="http://www.w3.org/2000/svg" viewBox="0 0 640 512"><!--! Font Awesome Pro 6.1.1 by @fontawesome - https://fontawesome.com License - https://fontawesome.com/license (Commercial License) Copyright 2022 Fonticons, Inc. --><path d="M432 48C432 21.49 453.5 0 480 0C506.5 0 528 21.49 528 48C528 74.51 506.5 96 480 96C453.5 96 432 74.51 432 48V48zM587.1 299.8L539.3 215.2L585.5 363.2C588.7 373.5 581 384 570.2 384H544V488C544 501.3 533.3 512 520 512C506.8 512 496 501.3 496 488V384H464V488C464 501.3 453.3 512 440 512C426.7 512 416 501.3 416 488V384H389.8C378.1 384 371.3 373.5 374.5 363.2L420.8 215.2L372.9 299.8C366.4 311.4 351.7 315.4 340.2 308.9C328.6 302.4 324.6 287.7 331.1 276.2L382.9 184.6C402.7 149.6 439.8 128 480 128C520.2 128 557.3 149.6 577.1 184.6L628.9 276.2C635.4 287.7 631.4 302.4 619.8 308.9C608.3 315.4 593.6 311.4 587.1 299.8H587.1zM526.7 336L480 186.5L433.3 336H526.7zM176 8C184.9 8 193 12.9 197.2 20.75L227.3 77.46L290.4 65.64C299.2 64.01 308.1 67.32 313.6 74.27C319.1 81.21 320.4 90.64 316.9 98.79L291.3 157.7L332.2 193L300.5 249.1L268.5 257.7L265.9 321.9C265.6 330.8 260.4 338.7 252.4 342.6C244.4 346.4 234.9 345.5 227.7 340.3L176 302.3L124.3 340.3C117.1 345.5 107.6 346.4 99.64 342.6C91.64 338.7 86.42 330.8 86.07 321.9L83.55 257.7L21.56 240.1C12.99 238.7 6.391 231.8 4.415 223.2C2.439 214.5 5.405 205.5 12.12 199.7L60.72 157.7L35.15 98.79C31.61 90.64 32.86 81.21 38.4 74.27C43.94 67.32 52.85 64.01 61.58 65.64L124.7 77.46L154.8 20.75C158.1 12.9 167.1 8 176 8H176zM176 83.18L158.8 115.6C153.9 124.8 143.5 129.8 133.2 127.9L97.18 121.1L111.8 154.8C115.1 164.4 113.4 175.6 105.4 182.5L77.71 206.4L113.1 215.1C123.2 218.7 130.4 227.7 130.8 238.2L132.3 274.8L161.8 253.1C170.2 246.9 181.8 246.9 190.2 253.1L219.7 274.8L221.2 238.2C221.6 227.7 228.8 218.7 238.9 215.1L274.3 206.4L246.6 182.5C238.6 175.6 236.1 164.4 240.2 154.8L254.8 121.1L218.8 127.9C208.5 129.8 198.1 124.8 193.2 115.6L176 83.18z"/></svg>

<svg xmlns="http://www.w3.org/2000/svg" viewBox="0 0 640 512"><!--! Font Awesome Pro 6.4.2 by @fontawesome - https://fontawesome.com License - https://fontawesome.com/license (Commercial License) Copyright 2023 Fonticons, Inc. --><path d="M480 0a48 48 0 1 1 0 96 48 48 0 1 1 0-96zM587.1 299.8l-47.9-84.6 46.3 148c3.2 10.3-4.5 20.8-15.3 20.8H544V488c0 13.3-10.7 24-24 24s-24-10.7-24-24V384H464V488c0 13.3-10.7 24-24 24s-24-10.7-24-24V384H389.8c-10.8 0-18.5-10.5-15.3-20.8l46.3-148-47.9 84.6c-6.5 11.5-21.2 15.6-32.7 9.1s-15.6-21.2-9.1-32.7l51.8-91.5c19.8-35 56.9-56.6 97.1-56.6s77.3 21.6 97.1 56.6l51.8 91.5c6.5 11.5 2.5 26.2-9.1 32.7s-26.2 2.5-32.7-9.1zM526.7 336L480 186.5 433.3 336h93.4zM176 8c8.9 0 17 4.9 21.2 12.7l30.1 56.7 63.1-11.8c8.7-1.6 17.6 1.7 23.2 8.6s6.8 16.4 3.3 24.5l-25.6 58.9L332.2 193l-31.7 56.1-32 8.6-2.5 64.2c-.3 8.9-5.6 16.8-13.6 20.7s-17.5 3-24.6-2.3l-51.7-38-51.7 38c-7.2 5.3-16.6 6.1-24.6 2.3s-13.2-11.8-13.6-20.7l-2.5-64.2L21.6 241c-8.6-2.3-15.2-9.2-17.1-17.8s1-17.7 7.7-23.5l48.6-42L35.1 98.8c-3.5-8.1-2.3-17.6 3.3-24.5s14.5-10.3 23.2-8.6l63.1 11.8 30.1-56.7C159 12.9 167.1 8 176 8zm0 75.2l-17.2 32.4c-4.9 9.3-15.3 14.3-25.6 12.3l-36-6.7 14.6 33.6c4.2 9.6 1.6 20.9-6.3 27.7l-27.7 24 35.4 9.6c10.1 2.7 17.3 11.7 17.7 22.2l1.4 36.6 29.5-21.7c8.5-6.2 20-6.2 28.4 0l29.5 21.7 1.4-36.6c.4-10.5 7.6-19.5 17.7-22.2l35.4-9.6-27.7-24c-7.9-6.9-10.5-18.1-6.3-27.7l14.6-33.6-36 6.7c-10.3 1.9-20.7-3.1-25.6-12.3L176 83.2z"/></svg>
